X: 15972
T: Grape Juice
R: reel
M: 4/4
K: Fmajor
|:c2|cAcd cAFA|CFAc fgaf|eBce gbag|fefg a2 c2|
cAcd cAFA|CFAc fgaf|eBce gbeg|f2 a2 f2:|
|:f2|edcB ABGA|FGAB c2 f2|e^cAc egfe|d2 fa d'2 ^c'2|
c'2 bg ecBG|F2 A,C F^G=Bd|cAB=B c^cde|f2 a2 f2:|

